!!!COM: Music21
!!!OTL: hornpipe_Chew-The-Wood
!!!OMV: hornpipe_Chew-The-Wood
**kern
*clefG2
*k[f#]
*G:
*M4/4
=1
8dL
8gJ
8gL
8f#J
4.g
8a
=
4.b
8a
2g
=
8dL
8gJ
8gL
8f#J
4g
8gL
8dJ
=
8eL
8dJ
8BL
8GJ
2A
=
8dL
8gJ
8gL
8f#J
4g
8gL
8aJ
=
4b
8bL
8ddJ
2ee
!!linebreak:original
=
8eeL
8ddJ
8bL
8aJ
8bL
8aJ
8gL
8f#J
=
*M4/4
8dL
8gJ
8gL
8f#J
4.g
8a
=
4.b
8a
2g
=
8dL
8gJ
8gL
8f#J
4g
8gL
8dJ
=
8eL
8dJ
8BL
8GJ
2A
=
8dL
8gJ
8gL
8f#J
4g
8gL
8aJ
!!linebreak:original
=
4b
8bL
8ddJ
2ee
=
8eeL
8ddJ
8bL
8aJ
8bL
8aJ
8gL
8f#J
=||
*M3/4
8dL
8eJ
8f#L
8dJ
4g
=
*M4/4
2e
8eL
8gJ
8f#L
8dJ
=
2e
4b
8aL
8f#J
=
4d
8BL
8dJ
8GL
8dJ
8BL
8dJ
!!linebreak:original
=
4e
8eL
8gJ
8bL
8aJ
8f#L
8dJ
=
2e
8eL
8gJ
8f#L
8dJ
=
2e
4b
8bL
8ddJ
=
8eeL
8ddJ
8bL
8aJ
8bL
8aJ
8gL
8f#J
=
*M4/4
8dL
8gJ
8gL
8f#J
4.g
8a
=
4.b
8a
2g
!!linebreak:original
=
8dL
8gJ
8gL
8f#J
4g
8gL
8dJ
=
8eL
8dJ
8BL
8GJ
2A
=
8dL
8gJ
8gL
8f#J
4g
8gL
8aJ
=
4b
8bL
8ddJ
2ee
=
8eeL
8ddJ
8bL
8aJ
8bL
8aJ
8gL
8f#J
=
*M4/4
8dL
8gJ
8gL
8f#J
4.g
8a
!!linebreak:original
=
4.b
8a
2g
=
8dL
8gJ
8gL
8f#J
4g
8gL
8dJ
=
8eL
8dJ
8BL
8GJ
2A
=
8dL
8gJ
8gL
8f#J
4g
8gL
8aJ
=
4b
8bL
8ddJ
2ee
=
8eeL
8ddJ
8bL
8aJ
8bL
8aJ
8gL
8f#J
!!linebreak:original
=||
*M3/4
8dL
8eJ
8f#L
8dJ
4g
=
*M4/4
2e
8eL
8gJ
8f#L
8dJ
=
2e
4b
8aL
8f#J
=
4d
8BL
8dJ
8GL
8dJ
8BL
8dJ
=
4e
8eL
8gJ
8bL
8aJ
8f#L
8dJ
=
2e
8eL
8gJ
8f#L
8dJ
=
2e
4b
8bL
8ddJ
!!linebreak:original
=
8eeL
8ddJ
8bL
8aJ
8bL
8aJ
8gL
8f#J
=||
*M3/4
8dL
8eJ
8f#L
8dJ
4g
=
*M4/4
8dL
8bJ
8bL
8aJ
4.b
8a
=
4.b
8a
4g
8gL
8f#J
=
8eL
8ccJ
8ccL
8bJ
4cc
8eL
8ccJ
=
4cc
8bL
8gJ
2e
!!linebreak:original
=
8aL
8ddJ
8ddL
8cc#XJ
4dd
8ddL
8eeJ
=
4.ff#
8aa
4gg
8ggL
8ff#J
=
8ggL
8eeJ
8ddL
8aJ
8bL
8aJ
8gL
8f#J
=
*M4/4
8dL
8gJ
8gL
8f#J
4.g
8a
=
4.b
8a
2g
=
8dL
8gJ
8gL
8f#J
4g
8gL
8dJ
!!linebreak:original
=
8eL
8dJ
8BL
8GJ
2A
=
8dL
8gJ
8gL
8f#J
4g
8gL
8aJ
=
4b
8bL
8ddJ
2ee
=
8eeL
8ddJ
8bL
8aJ
8bL
8aJ
8gL
8f#J
=
*M4/4
8dL
8gJ
8gL
8f#J
4.g
8a
=
4.b
8a
2g
!!pagebreak:original
=
8dL
8gJ
8gL
8f#J
4g
8gL
8dJ
=
8eL
8dJ
8BL
8GJ
2A
=
8dL
8gJ
8gL
8f#J
4g
8gL
8aJ
=
4b
8bL
8ddJ
2ee
=
8eeL
8ddJ
8bL
8aJ
8bL
8aJ
8gL
8f#J
=||
*M3/4
8dL
8eJ
8f#L
8dJ
4g
!!linebreak:original
=
*M4/4
2e
8eL
8gJ
8f#L
8dJ
=
2e
4b
8aL
8f#J
=
4d
8BL
8dJ
8GL
8dJ
8BL
8dJ
=
4e
8eL
8gJ
8bL
8aJ
8f#L
8dJ
=
2e
8eL
8gJ
8f#L
8dJ
=
2e
4b
8bL
8ddJ
!!linebreak:original
=
8eeL
8ddJ
8bL
8aJ
8bL
8aJ
8gL
8f#J
=
*M4/4
8dL
8gJ
8gL
8f#J
4.g
8a
=
4.b
8a
2g
=
8dL
8gJ
8gL
8f#J
4g
8gL
8dJ
=
8eL
8dJ
8BL
8GJ
2A
=
8dL
8gJ
8gL
8f#J
4g
8gL
8aJ
!!linebreak:original
=
4b
8bL
8ddJ
2ee
=
8eeL
8ddJ
8bL
8aJ
8bL
8aJ
8gL
8f#J
=
*M4/4
8dL
8gJ
8gL
8f#J
4.g
8a
=
4.b
8a
2g
=
8dL
8gJ
8gL
8f#J
4g
8gL
8dJ
=
8eL
8dJ
8BL
8GJ
2A
!!linebreak:original
=
8dL
8gJ
8gL
8f#J
4g
8gL
8aJ
=
4b
8bL
8ddJ
2ee
=
8eeL
8ddJ
8bL
8aJ
8bL
8aJ
8gL
8f#J
=||
*M3/4
8dL
8eJ
8f#L
8dJ
4g
=
*M4/4
2e
8eL
8gJ
8f#L
8dJ
=
2e
4b
8aL
8f#J
!!linebreak:original
=
4d
8BL
8dJ
8GL
8dJ
8BL
8dJ
=
4e
8eL
8gJ
8bL
8aJ
8f#L
8dJ
=
2e
8eL
8gJ
8f#L
8dJ
=
2e
4b
8bL
8ddJ
=
8eeL
8ddJ
8bL
8aJ
8bL
8aJ
8gL
8f#J
=||
*M3/4
8dL
8eJ
8f#L
8dJ
4g
!!linebreak:original
=
*M4/4
8dL
8bJ
8bL
8aJ
4.b
8a
=
4.b
8a
4g
8gL
8f#J
=
8eL
8ccJ
8ccL
8bJ
4cc
8eL
8ccJ
=
4cc
8bL
8gJ
2e
=
8aL
8ddJ
8ddL
8cc#XJ
4dd
8ddL
8eeJ
=
4.ff#
8aa
4gg
8ggL
8ff#J
!!linebreak:original
=
8ggL
8eeJ
8ddL
8aJ
8bL
8aJ
8gL
8f#J
=||
*M3/4
8dL
8eJ
8f#L
8dJ
4g
=
*-
